src/icons/help.svg

<?xml version="1.0" encoding="UTF-8"?>
<svg width="512px" height="512px" viewBox="0 0 512 512" version="1.1" xmlns="http://www.w3.org/2000/svg" xmlns:xlink="http://www.w3.org/1999/xlink">
    <!-- Generator: Sketch 62 (91390) - https://sketch.com -->
    <title>help</title>
    <desc>Created with Sketch.</desc>
    <g id="help" stroke="none" stroke-width="1" fill="none" fill-rule="evenodd">
        <path d="M333.5,93.8884074 C309.6,75.7884074 282.6,69.4884074 248.4,69.4884074 C222.5,69.4884074 200.3,74.7884074 182.7,86.5884074 C156.8,104.288407 144.7,133.888407 144.7,180.788407 L211.5,180.788407 C211.5,168.288407 210.3,154.788407 217.6,143.188407 C224.9,131.588407 235.1,122.688407 252.5,122.688407 C270.2,122.688407 279.4,127.788407 288,138.388407 C295.3,147.388407 298.1,158.188407 298.1,169.688407 C298.1,179.588407 293.1,188.788407 287,196.988407 C283.7,201.888407 279.3,206.288407 273.9,210.388407 C273.9,210.388407 237.8,231.888407 225.1,252.188407 C215.6,267.288407 212.2,286.288407 211.5,308.988407 C211.4,310.688407 212.1,313.988407 217.8,313.988407 L271.5,313.988407 C276.5,313.988407 277.6,310.188407 277.7,308.588407 C278,300.288407 279.1,287.688407 280.6,282.888407 C283.5,273.888407 289,265.888407 297.7,259.188407 L315.7,246.688407 C332,233.988407 344.9,223.688407 350.7,215.488407 C360.5,202.088407 367.4,185.588407 367.4,165.988407 C367.3,134.288407 355.5,110.688407 333.5,93.8884074 L333.5,93.8884074 Z M243.8,348.788407 C221.3,348.088407 202.7,363.788407 201.9,388.188407 C201.2,412.688407 218.9,428.788407 241.5,429.488407 C265,430.188407 283.2,414.988407 283.9,390.588407 C284.6,366.188407 267.3,349.488407 243.8,348.788407 L243.8,348.788407 Z" id="Shape" fill="#000000" fill-rule="nonzero"></path>
    </g>
</svg>

<svg xmlns="http://www.w3.org/2000/svg" width="512" height="512" viewBox="0 0 512 512">
    <path d="M333.5 93.888c-23.9-18.1-50.9-24.4-85.1-24.4-25.9 0-48.1 5.3-65.7 17.1-25.9 17.7-38 47.3-38 94.2h66.8c0-12.5-1.2-26 6.1-37.6 7.3-11.6 17.5-20.5 34.9-20.5 17.7 0 26.9 5.1 35.5 15.7 7.3 9 10.1 19.8 10.1 31.3 0 9.9-5 19.1-11.1 27.3-3.3 4.9-7.7 9.3-13.1 13.4 0 0-36.1 21.5-48.8 41.8-9.5 15.1-12.9 34.1-13.6 56.8-.1 1.7.6 5 6.3 5h53.7c5 0 6.1-3.8 6.2-5.4.3-8.3 1.4-20.9 2.9-25.7 2.9-9 8.4-17 17.1-23.7l18-12.5c16.3-12.7 29.2-23 35-31.2 9.8-13.4 16.7-29.9 16.7-49.5-.1-31.7-11.9-55.3-33.9-72.1zm-89.7 254.9c-22.5-.7-41.1 15-41.9 39.4-.7 24.5 17 40.6 39.6 41.3 23.5.7 41.7-14.5 42.4-38.9.7-24.4-16.6-41.1-40.1-41.8z"/>
</svg>
